X:18
T:Les grandes poteries
R:Bourre  3 temps
C:Trad.
A:Berry
O:France
M:3/4
Q:200
K:C
e/2f/2|:geg |g/2e/2 c e/2f/2|geg|g2 d/2e/2 fdd|d2 c/2d/2|ecc|1 c2
e/2f/2:|2 c2 B/2A/2|
|:G2A|G2A|Gcd|e3|dcd|cBA|1 GAG|E2F:|2 Ged c3||
